Origami/24x24/apps/brackets-electron.svg

<svg width="24" height="24" version="1" xmlns="http://www.w3.org/2000/svg">
 <rect x="2" y="2.5" width="20" height="20" rx="1" ry="1" style="opacity:.2"/>
 <rect x="2" y="2" width="20" height="20" rx="1" ry="1" style="fill:#e65100"/>
 <rect x="4" y="4" width="16" height="16" rx="1" ry="1" style="fill:#ffffff"/>
 <path d="m5 5v14h6v-3h-3v-8h3v-3h-6zm8 0v3h3v8h-3v3h6v-14h-6z" style="fill:#424242"/>
 <path d="m3 2c-0.554 0-1 0.446-1 1v0.5c0-0.554 0.446-1 1-1h18c0.554 0 1 0.446 1 1v-0.5c0-0.554-0.446-1-1-1h-18z" style="fill:#ffffff;opacity:.2"/>
</svg>

<svg xmlns="http://www.w3.org/2000/svg" width="24" height="24" version="1">
 <rect style="opacity:0.2" width="20" height="20" x="2" y="2.5" rx="1" ry="1"/>
 <rect style="fill:#e65100" width="20" height="20" x="2" y="2" rx="1" ry="1"/>
 <rect style="fill:#ffffff" width="16" height="16" x="4" y="4" rx="1" ry="1"/>
 <path style="fill:#424242" d="M 5 5 L 5 19 L 11 19 L 11 16 L 8 16 L 8 8 L 11 8 L 11 5 L 5 5 z M 13 5 L 13 8 L 16 8 L 16 16 L 13 16 L 13 19 L 19 19 L 19 5 L 13 5 z"/>
 <path style="fill:#ffffff;opacity:0.2" d="M 3 2 C 2.446 2 2 2.446 2 3 L 2 3.5 C 2 2.946 2.446 2.5 3 2.5 L 21 2.5 C 21.554 2.5 22 2.946 22 3.5 L 22 3 C 22 2.446 21.554 2 21 2 L 3 2 z"/>
</svg>
